src/assets/duotone/Notification1.svg

<svg width="24" height="24" viewBox="0 0 24 24"  xmlns="http://www.w3.org/2000/svg">
<path d="M19 8C20.6569 8 22 6.65685 22 5C22 3.34315 20.6569 2 19 2C17.3431 2 16 3.34315 16 5C16 6.65685 17.3431 8 19 8Z" />
<path opacity="0.4" d="M19 9.5C16.52 9.5 14.5 7.48 14.5 5C14.5 4.28 14.69 3.61 14.99 3H7.52C4.07 3 2 5.06 2 8.52V16.47C2 19.94 4.07 22 7.52 22H15.47C18.93 22 20.99 19.94 20.99 16.48V9.01C20.39 9.31 19.72 9.5 19 9.5Z" />
</svg>

<?xml version="1.0" encoding="UTF-8"?>
<svg width="24" height="24" viewBox="0 0 24 24" xmlns="http://www.w3.org/2000/svg">
 <path d="m19 8c1.6569 0 3-1.3432 3-3s-1.3431-3-3-3-3 1.3432-3 3 1.3431 3 3 3z"/>
 <path d="m19 9.5c-2.48 0-4.5-2.02-4.5-4.5 0-0.72 0.19-1.39 0.49-2h-7.47c-3.45 0-5.52 2.06-5.52 5.52v7.95c0 3.47 2.07 5.53 5.52 5.53h7.95c3.46 0 5.52-2.06 5.52-5.52v-7.47c-0.6 0.3-1.27 0.49-1.99 0.49z" opacity=".4"/>
</svg>
